app/icons/business-building.svg

﻿<svg xmlns="http://www.w3.org/2000/svg" viewBox="0 0 50 50" width="50" height="50">
    <path style="line-height:normal;text-indent:0;text-align:start;text-decoration-line:none;text-decoration-style:solid;text-decoration-color:#000;text-transform:none;block-progression:tb;isolation:auto;mix-blend-mode:normal" d="M 24.982422 2 A 1.0001 1.0001 0 0 0 24.535156 2.1132812 L 3.5351562 13.113281 A 1.0001 1.0001 0 0 0 3 14 L 3 45 A 1.0001 1.0001 0 0 0 4 46 L 21 46 L 29 46 L 46 46 A 1.0001 1.0001 0 0 0 47 45 L 47 14 A 1.0001 1.0001 0 0 0 46.464844 13.113281 L 25.464844 2.1132812 A 1.0001 1.0001 0 0 0 24.982422 2 z M 25 4.1289062 L 45 14.605469 L 45 44 L 30 44 L 30 35 A 1.0001 1.0001 0 0 0 29 34 L 21 34 A 1.0001 1.0001 0 0 0 20 35 L 20 44 L 5 44 L 5 14.605469 L 25 4.1289062 z M 8 16 A 1.0001 1.0001 0 0 0 7 17 L 7 22 A 1.0001 1.0001 0 0 0 8 23 L 15 23 A 1.0001 1.0001 0 0 0 16 22 L 16 17 A 1.0001 1.0001 0 0 0 15 16 L 8 16 z M 21 16 A 1.0001 1.0001 0 0 0 20 17 L 20 22 A 1.0001 1.0001 0 0 0 21 23 L 29 23 A 1.0001 1.0001 0 0 0 30 22 L 30 17 A 1.0001 1.0001 0 0 0 29 16 L 21 16 z M 35 16 A 1.0001 1.0001 0 0 0 34 17 L 34 22 A 1.0001 1.0001 0 0 0 35 23 L 42 23 A 1.0001 1.0001 0 0 0 43 22 L 43 17 A 1.0001 1.0001 0 0 0 42 16 L 35 16 z M 9 18 L 14 18 L 14 21 L 9 21 L 9 18 z M 22 18 L 28 18 L 28 21 L 22 21 L 22 18 z M 36 18 L 41 18 L 41 21 L 36 21 L 36 18 z M 8 25 A 1.0001 1.0001 0 0 0 7 26 L 7 31 A 1.0001 1.0001 0 0 0 8 32 L 15 32 A 1.0001 1.0001 0 0 0 16 31 L 16 26 A 1.0001 1.0001 0 0 0 15 25 L 8 25 z M 21 25 A 1.0001 1.0001 0 0 0 20 26 L 20 31 A 1.0001 1.0001 0 0 0 21 32 L 29 32 A 1.0001 1.0001 0 0 0 30 31 L 30 26 A 1.0001 1.0001 0 0 0 29 25 L 21 25 z M 35 25 A 1.0001 1.0001 0 0 0 34 26 L 34 31 A 1.0001 1.0001 0 0 0 35 32 L 42 32 A 1.0001 1.0001 0 0 0 43 31 L 43 26 A 1.0001 1.0001 0 0 0 42 25 L 35 25 z M 9 27 L 14 27 L 14 30 L 9 30 L 9 27 z M 22 27 L 28 27 L 28 30 L 22 30 L 22 27 z M 36 27 L 41 27 L 41 30 L 36 30 L 36 27 z M 8 34 A 1.0001 1.0001 0 0 0 7 35 L 7 40 A 1.0001 1.0001 0 0 0 8 41 L 15 41 A 1.0001 1.0001 0 0 0 16 40 L 16 35 A 1.0001 1.0001 0 0 0 15 34 L 8 34 z M 35 34 A 1.0001 1.0001 0 0 0 34 35 L 34 40 A 1.0001 1.0001 0 0 0 35 41 L 42 41 A 1.0001 1.0001 0 0 0 43 40 L 43 35 A 1.0001 1.0001 0 0 0 42 34 L 35 34 z M 9 36 L 14 36 L 14 39 L 9 39 L 9 36 z M 22 36 L 28 36 L 28 44 L 22 44 L 22 36 z M 36 36 L 41 36 L 41 39 L 36 39 L 36 36 z"/>
</svg>

<?xml version="1.0" encoding="utf-8"?>
<!-- Generator: Adobe Illustrator 17.0.0, SVG Export Plug-In . SVG Version: 6.00 Build 0)  -->
<!DOCTYPE svg PUBLIC "-//W3C//DTD SVG 1.1//EN" "http://www.w3.org/Graphics/SVG/1.1/DTD/svg11.dtd">
<svg version="1.1" id="Layer_1" xmlns="http://www.w3.org/2000/svg" xmlns:xlink="http://www.w3.org/1999/xlink" x="0px" y="0px"
	 width="50px" height="50px" viewBox="0 0 50 50" enable-background="new 0 0 50 50" xml:space="preserve">
<path d="M15,25H8c-0.552,0-1,0.448-1,1v5c0,0.552,0.448,1,1,1h7c0.552,0,1-0.448,1-1v-5C16,25.448,15.552,25,15,25z M14,30H9v-3h5
	V30z M15,34H8c-0.552,0-1,0.448-1,1v5c0,0.552,0.448,1,1,1h7c0.552,0,1-0.448,1-1v-5C16,34.448,15.552,34,15,34z M14,39H9v-3h5V39z
	 M35,41h7c0.552,0,1-0.448,1-1v-5c0-0.552-0.448-1-1-1h-7c-0.552,0-1,0.448-1,1v5C34,40.552,34.448,41,35,41z M36,36h5v3h-5V36z
	 M20,17v5c0,0.552,0.448,1,1,1h8c0.552,0,1-0.448,1-1v-5c0-0.552-0.448-1-1-1h-8C20.448,16,20,16.448,20,17z M22,18h6v3h-6V18z
	 M15,16H8c-0.552,0-1,0.448-1,1v5c0,0.552,0.448,1,1,1h7c0.552,0,1-0.448,1-1v-5C16,16.448,15.552,16,15,16z M14,21H9v-3h5V21z
	 M35,32h7c0.552,0,1-0.448,1-1v-5c0-0.552-0.448-1-1-1h-7c-0.552,0-1,0.448-1,1v5C34,31.552,34.448,32,35,32z M36,27h5v3h-5V27z
	 M46.465,13.113l-21-11C25.316,2.036,25.15,1.997,24.982,2c-0.156,0.002-0.309,0.041-0.447,0.113l-21,11C3.206,13.286,3,13.628,3,14
	v31c0,0.552,0.448,1,1,1h17h8h17c0.552,0,1-0.448,1-1V14C47,13.628,46.794,13.286,46.465,13.113z M28,44h-6v-8h6V44z M45,44H30v-9
	c0-0.552-0.448-1-1-1h-8c-0.552,0-1,0.448-1,1v9H5V14.605L25,4.129l20,10.477V44z M35,23h7c0.552,0,1-0.448,1-1v-5
	c0-0.552-0.448-1-1-1h-7c-0.552,0-1,0.448-1,1v5C34,22.552,34.448,23,35,23z M36,18h5v3h-5V18z M29,25h-8c-0.552,0-1,0.448-1,1v5
	c0,0.552,0.448,1,1,1h8c0.552,0,1-0.448,1-1v-5C30,25.448,29.552,25,29,25z M28,30h-6v-3h6V30z"/>
</svg>
